img/icons/settings.svg

<svg width="24" height="24" viewBox="0 0 24 24" fill="none" xmlns="http://www.w3.org/2000/svg">
<path d="M20.35 8.923L19.9838 8.71927C19.9269 8.68763 19.8984 8.67176 19.871 8.65531C19.5979 8.49172 19.3679 8.26529 19.1999 7.99489C19.183 7.96768 19.1664 7.93956 19.1338 7.88317L19.1337 7.88295C19.1012 7.82663 19.0848 7.7983 19.0697 7.77005C18.919 7.48873 18.8379 7.17547 18.8331 6.85638C18.8326 6.82759 18.8331 6.79813 18.834 6.74528L18.8343 6.72624L18.8414 6.30924C18.8529 5.6232 18.8586 5.28024 18.7626 4.97269C18.6776 4.7006 18.5357 4.44977 18.3459 4.23709C18.1317 3.99711 17.8348 3.82601 17.2424 3.48461L17.2393 3.48283L16.7455 3.19827C16.1526 2.85664 15.8561 2.6859 15.5414 2.62076C15.2629 2.56313 14.9754 2.56543 14.698 2.62772C14.3851 2.69794 14.0926 2.8731 13.5086 3.22282L13.5041 3.2255L13.1503 3.43736C13.0943 3.47086 13.066 3.48757 13.038 3.50316C12.7597 3.65788 12.4485 3.74397 12.1303 3.75418C12.0982 3.75521 12.0656 3.75521 12.0004 3.75521H11.9995C11.9347 3.75521 11.9025 3.75521 11.8705 3.75418C11.5516 3.74392 11.2394 3.65745 10.9607 3.50209C10.9336 3.487 10.9067 3.47085 10.8546 3.43958L10.8486 3.43597L10.4925 3.2222L10.4899 3.22059C9.9023 2.86784 9.60823 2.6913 9.29382 2.62076C9.01525 2.55826 8.72629 2.55616 8.44683 2.61453C8.13092 2.68052 7.83353 2.85309 7.239 3.19815L6.75134 3.48119C6.1599 3.82445 5.8646 3.99601 5.65124 4.23616C5.46248 4.44862 5.32109 4.69888 5.23664 4.97025C5.14119 5.27698 5.14657 5.61891 5.15807 6.30264L5.16522 6.7273C5.1663 6.79161 5.16702 6.82379 5.16655 6.85542C5.16182 7.17516 5.0804 7.48909 4.92929 7.77091C4.91434 7.79878 4.89824 7.82665 4.86608 7.88232C4.8339 7.93803 4.81783 7.96582 4.80114 7.99271C4.63242 8.26456 4.40094 8.49205 4.12613 8.65592C4.09895 8.67212 4.07104 8.68771 4.01476 8.7189L3.65319 8.91927L3.65307 8.91934C3.05158 9.25266 2.7509 9.41929 2.5321 9.65669C2.33853 9.86672 2.19195 10.1158 2.10269 10.3871C2.00192 10.6934 2.0027 11.0368 2.00426 11.7228L2.00427 11.7255L2.00554 12.2876L2.00556 12.2937C2.0071 12.9728 2.00787 13.3133 2.1087 13.617C2.19816 13.8865 2.344 14.1338 2.53649 14.3426C2.75383 14.5783 3.05212 14.7442 3.64782 15.0756L3.64977 15.0767L4.00811 15.276L4.01309 15.2788C4.07079 15.3109 4.10054 15.3275 4.12914 15.3447C4.40145 15.5087 4.63043 15.7352 4.79772 16.0055C4.81579 16.0347 4.83314 16.065 4.86781 16.1256L4.86784 16.1256C4.9021 16.1855 4.91943 16.2154 4.93528 16.2454C5.08195 16.5231 5.16121 16.8314 5.16657 17.1454C5.16715 17.1793 5.16661 17.2139 5.16544 17.2829L5.15856 17.6904L5.15854 17.6919C5.14697 18.377 5.14119 18.7197 5.23713 19.027C5.32208 19.2991 5.46438 19.5499 5.65417 19.7626C5.86869 20.003 6.1656 20.1744 6.76013 20.517L7.25383 20.8015C7.84668 21.1431 8.14354 21.3139 8.45828 21.379C8.73673 21.4366 9.02419 21.4343 9.30163 21.372C9.61457 21.3017 9.90718 21.1265 10.4917 20.7765L10.4955 20.7743L10.8493 20.5624C10.9053 20.5289 10.9334 20.5122 10.9615 20.4966C11.2398 20.3419 11.5508 20.2558 11.869 20.2456C11.9011 20.2445 11.9337 20.2445 11.9989 20.2445C12.0643 20.2445 12.0975 20.2445 12.1296 20.2456C12.4485 20.2558 12.7602 20.3422 13.0389 20.4976C13.067 20.5132 13.0952 20.5301 13.1512 20.5638L13.5073 20.7775L13.508 20.7779C14.0969 21.1315 14.3913 21.3083 14.7061 21.3789C14.9847 21.4414 15.2731 21.4436 15.5526 21.3852C15.8685 21.3193 16.1661 21.1467 16.7606 20.8016L17.2483 20.5186C17.8397 20.1753 18.1351 20.0037 18.3484 19.7636C18.5372 19.5511 18.6786 19.3009 18.7631 19.0295C18.8585 18.7228 18.853 18.3809 18.8415 17.6972L18.8343 17.2725L18.834 17.251C18.8331 17.2006 18.8326 17.1723 18.833 17.1444C18.8378 16.8247 18.9191 16.5107 19.0702 16.2289C19.0851 16.2011 19.1012 16.1732 19.1333 16.1177L19.1334 16.1175C19.1656 16.0618 19.1819 16.0339 19.1986 16.007C19.3674 15.7351 19.5986 15.5078 19.8734 15.3439C19.8997 15.3282 19.9271 15.3131 19.9797 15.2839L19.9852 15.2808L20.3468 15.0805C20.9484 14.7471 21.2489 14.5805 21.4677 14.3431C21.6613 14.133 21.8076 13.884 21.8968 13.6127C21.9977 13.306 21.9973 12.9621 21.9958 12.2743L21.9945 11.7122C21.993 11.029 21.9921 10.6873 21.891 10.3827C21.8015 10.1132 21.6556 9.86592 21.4631 9.65716C21.2455 9.42119 20.947 9.25512 20.35 8.923Z" stroke="#5D5D62" stroke-width="2" stroke-linecap="round" stroke-linejoin="round"/>
<path d="M8 12C8 14.2091 9.79086 16 12 16C14.2091 16 16 14.2091 16 12C16 9.79086 14.2091 8 12 8C9.79086 8 8 9.79086 8 12Z" stroke="#5D5D62" stroke-width="2" stroke-linecap="round" stroke-linejoin="round"/>
</svg>

<svg width="24" height="24" fill="none" xmlns="http://www.w3.org/2000/svg"><path d="m20.35 8.923-.366-.204a2 2 0 0 1-.85-.836h0a1.998 1.998 0 0 1-.3-1.138v-.019l.007-.417c.012-.686.018-1.029-.078-1.336a2 2 0 0 0-.417-.736c-.214-.24-.511-.411-1.104-.752l-.003-.002-.494-.285c-.592-.341-.889-.512-1.204-.577a2 2 0 0 0-.843.007c-.313.07-.605.245-1.19.595l-.004.002-.354.212-.112.066a2 2 0 0 1-.908.251l-.13.001h0-.13a2.001 2.001 0 0 1-.91-.253l-.105-.062-.006-.004-.357-.214-.002-.001c-.588-.353-.882-.53-1.196-.6a2.001 2.001 0 0 0-.847-.006c-.316.066-.613.238-1.208.583l-.488.283c-.591.343-.886.515-1.1.755a2 2 0 0 0-.414.734c-.096.307-.09.649-.079 1.333l.007.424.002.128a2 2 0 0 1-.3 1.027 2 2 0 0 1-.851.837l-.363.2h0c-.601.334-.902.5-1.12.738a2 2 0 0 0-.43.73c-.101.306-.1.65-.099 1.336v.002l.002.563v.006c.001.679.002 1.02.103 1.323a2 2 0 0 0 .427.726c.218.235.516.401 1.112.733h.002l.358.2.005.003.116.066a2 2 0 0 1 .739.78h0l.067.12a2 2 0 0 1 .23 1.038l-.006.407v.002c-.012.685-.018 1.028.078 1.335a2 2 0 0 0 .417.736c.215.24.512.411 1.106.754l.494.285c.593.341.89.512 1.204.577a2 2 0 0 0 .844-.007c.313-.07.605-.245 1.19-.596l.003-.002.354-.212c.056-.033.084-.05.112-.065a2 2 0 0 1 .908-.251c.032-.002.065-.002.13-.002s.098 0 .13.002a1.998 1.998 0 0 1 1.022.318l.356.213h.001c.589.354.883.531 1.198.602a2 2 0 0 0 .847.006c.315-.066.613-.238 1.208-.583l.487-.283c.592-.344.887-.515 1.1-.755a2 2 0 0 0 .415-.735c.095-.306.09-.648.078-1.332l-.007-.424v-.022l-.001-.107a2.001 2.001 0 0 1 .3-1.026h0l.066-.111a2 2 0 0 1 .674-.663l.107-.06.005-.003.362-.2c.601-.334.902-.5 1.12-.738a2 2 0 0 0 .43-.73c.1-.307.1-.65.099-1.339l-.002-.562c-.001-.683-.002-1.025-.103-1.33a2 2 0 0 0-.428-.725c-.218-.236-.516-.402-1.113-.734Z" stroke="#5D5D62" stroke-width="2" stroke-linecap="round" stroke-linejoin="round"/><path d="M8 12a4 4 0 1 0 8 0 4 4 0 0 0-8 0Z" stroke="#5D5D62" stroke-width="2" stroke-linecap="round" stroke-linejoin="round"/></svg>
